dist/svgs/geomicons-open/icons/dribbble.svg

<svg xmlns="http://www.w3.org/2000/svg" viewBox="0 0 32 32"><path d="M16 0A16 16 0 000 16a16 16 0 0016 16 16 16 0 0016-16A16 16 0 0016 0M5 11.5A12 12 0 0111 5a46 46 0 012.5 4.25A46 46 0 015 11.5M15 4a12 12 0 016.5 1.25 46 46 0 01-4.5 2.5A50 50 0 0015 4M4 16a50 50 0 0011-3 46 46 0 011 2.5 26 26 0 00-10 7A12 12 0 014 16m14.5-4.5A50 50 0 0025 8a12 12 0 013 5.75 26 26 0 00-8.25.75 50 50 0 00-1.25-3m-1.5 8a46 46 0 011 8.5 12 12 0 01-9.25-2.5 22 22 0 018.25-6m3.75-1.25a22 22 0 017.25-.5 12 12 0 01-6 8.75 50 50 0 00-1.25-8.25"/></svg>

<svg id="dribbble" xmlns="http://www.w3.org/2000/svg" viewBox="0 0 32 32" width="32" height="32" fill="currentcolor">
  <path d="M16 0 A16 16 0 0 0 0 16 A16 16 0 0 0 16 32 A16 16 0 0 0 32 16 A16 16 0 0 0 16 0 M5 11.5 A12 12 0 0 1 11 5 A46 46 0 0 1 13.5 9.25 A46 46 0 0 1 5 11.5 M15 4 A12 12 0 0 1 21.5 5.25 A46 46 0 0 1 17 7.75 A50 50 0 0 0 15 4 M4 16 A50 50 0 0 0 15 13 A46 46 0 0 1 16 15.5 A26 26 0 0 0 6 22.5 A12 12 0 0 1 4 16 M18.5 11.5 A50 50 0 0 0 25 8 A12 12 0 0 1 28 13.75 A26 26 0 0 0 19.75 14.5 A50 50 0 0 0 18.5 11.5 M17 19.5 A46 46 0 0 1 18 28 A12 12 0 0 1 8.75 25.5 A22 22 0 0 1 17 19.5 M20.75 18.25 A22 22 0 0 1 28 17.75 A12 12 0 0 1 22 26.5 A50 50 0 0 0 20.75 18.25"></path>
</svg>
